X:7114
T:Historia de Carmina y Rogelio
R:Romance
C:Tradicional
S:Msica Tradicional Asturiana, (C) Tello & Tito. Asturies, 2001.
S:http://pagina.de/MusTradAst <telloytito@asturies.org>
N:Romancero vulgar usado para el corro.
A:Asturies
Z:DyC en Teberga
M:3/8
L:1/8
Q:3/8=60
K:Em
E
|: F2 E|^DEF|A G2-|GGA|B2 A|A2 G|F E2-|E z B|
|d2 c|BA^G|A2 B-|cBA|G2 B|A2 G|F E2-|[1 E2 z E :|[2 E2 z|
